!!!COM: Haydn, Franz Joseph
!!!OTL: String Quartet in F Major
!!!OPS: Opus 17
!!!ONM: No. 2
!!!OMD: Finale: Allegro di molto
!!!OMV: 4
!!!SCT: H III:26
!!!SCA: Thematisch-bibliographisches Werkevererzeichnis (A. van Hoboken)
!!!YOR: Trautwein Edition
!!!ENC: Frances Bennion
!!!CDT: 1732/3/31/-1809/5/31/
!!!CNT: Oesterreich
!!!YEC: Copyright (c) 1994, 2000 Center for Computer Assisted Research in the Humanities
!!!YEM: Rights to all derivative editions reserved.
!!!YEM: Refer to licensing agreement for further details.
!!!YEN: United States of America
**kern	**kern	**kern	**kern
*k[b-]	*k[b-]	*k[b-]	*k[b-]
*F:	*F:	*F:	*F:
*clefF4	*clefC3	*clefG	*clefG
*M2/4	*M2/4	*M2/4	*M2/4
4.r	4.r	4.r	4.r
8r	8r	8r	8c
=1	=1	=1	=1
2r	2r	2r	2A 2f
=2	=2	=2	=2
8r	8r	8r	8G 8e
8C	8B-	8G 8e	4r
8C	8B-	8e 8G	.
8r	8r	8r	8c
=3	=3	=3	=3
2r	2r	2r	2g 2B-
=4	=4	=4	=4
8r	8r	8r	8A 8f
8F	8A	8f 8A	4r
8F	8A	8A 8f	.
8r	8r	[8a	[8cc
=5	=5	=5	=5
2r	4F	8a]	8cc]
.	.	4f	4a
.	4f	.	.
.	.	[8dd	[8ff
=6	=6	=6	=6
4BB-	4B-	8dd]	8ff]
.	.	4b-	4dd
4B-	4r	.	.
.	.	8b-	16d
.	.	.	16dd
=7	=7	=7	=7
4c	4r	8a	8cc
.	.	16g	16b-
.	.	16f	16a
4C	4c	8e	8g
.	.	16f	16a
.	.	16g	16b-
=8	=8	=8	=8
4F	2c	4g	4b-
4FF	.	8f	8a
.	.	[8a	[8cc
=9	=9	=9	=9
2r	4F	8a]	8cc]
.	.	4f	4a
.	4f	.	.
.	.	[8dd	[8ff
=10	=10	=10	=10
4BB-	4B-	8dd]	8ff]
.	.	4b-	4dd
4B-	4r	.	.
.	.	8b-	16d
.	.	.	16dd
=11	=11	=11	=11
4c	4r	8a	8cc
.	.	16g	16b-
.	.	16f	16a
4C	4c	8B-	8g
.	.	16A	16f
.	.	16G	16e
=12	=12	=12	=12
4F	4c	4A	4f
4r	4r	4r	16r
.	.	.	16aa
.	.	.	16gg
.	.	.	16aa
=13	=13	=13	=13
4F	4c	4a	16ff
.	.	.	16cc
.	.	.	16b-
.	.	.	16cc
4r	4r	4r	16a
.	.	.	16f
.	.	.	16e
.	.	.	16f
=14	=14	=14	=14
4F	4c	4a	4A
4r	4r	4r	16r
.	.	.	16gg
.	.	.	16ff
.	.	.	16gg
=15	=15	=15	=15
4E	4c	4g	16ee
.	.	.	16cc
.	.	.	16b
.	.	.	16cc
4r	4r	4r	16g
.	.	.	16e
.	.	.	16d
.	.	.	16e
=16	=16	=16	=16
4E	4c	4g	4G
4r	4r	4r	16r
.	.	.	16aa
.	.	.	16gg
.	.	.	16aa
=17	=17	=17	=17
8D	2r	8a	16ff
.	.	.	16gg
8E	.	8g	16ee
.	.	.	16ff
8F	.	8f	16dd
.	.	.	16ee
8F#	.	8e	16cc
.	.	.	16dd
=18	=18	=18	=18
4.G	4.d	8d	16b
.	.	.	16cc
.	.	8c	16a
.	.	.	16b
.	.	8B	16g
.	.	.	16a
16A	8G	16c	16f
16B	.	16d	16g
=19	=19	=19	=19
4c	4G	8c	16e
.	.	.	16G
.	.	8e	16g
.	.	.	16G
8r	8r	8d	16f
.	.	.	16G
8G	8d	8f	16b
.	.	.	16G
=20	=20	=20	=20
8c	4c	4e	16cc
.	.	.	16G
8e	.	.	16g
.	.	.	16G
8d	8r	8r	16f
.	.	.	16G
8B	8G	8f	16d
.	.	.	16G
=21	=21	=21	=21
4c	4G	8c	16e
.	.	.	16G
.	.	8e	16g
.	.	.	16G
8r	8r	8d	16f
.	.	.	16G
8G	8d	8f	16b
.	.	.	16G
=22	=22	=22	=22
8c	4c	4e	16cc
.	.	.	16G
8e	.	.	16g
.	.	.	16G
8d	8r	8r	16f
.	.	.	16G
8B	8G	8f	16d
.	.	.	16G
=23	=23	=23	=23
4c	4G	8e	16e
.	.	.	16G
.	.	8e	16g
.	.	.	16G
4r	4r	8f	16a
.	.	.	16G
.	.	8g	16b
.	.	.	16G
=24	=24	=24	=24
2r	2r	8a	16cc
.	.	.	16G
.	.	8g	16b
.	.	.	16G
.	.	8a	16cc
.	.	.	16G
.	.	8b	16dd
.	.	.	16G
=25	=25	=25	=25
2r	2r	8cc	16ee
.	.	.	16G
.	.	8b	16dd
.	.	.	16G
.	.	8cc	16ee
.	.	.	16G
.	.	8dd	16ff
.	.	.	16G
=26	=26	=26	=26
2r	2r	4ee	4gg
.	.	4r	8r
.	.	.	8gg
=27	=27	=27	=27
8r	8r	8r	2ccc
8A	8d	8f#	.
8A	8d	8f#	.
8A	8d	8f#	.
=28	=28	=28	=28
8r	8r	8r	2bb
8G	8d	8g	.
8G	8d	8g	.
8G	8d	8g	.
=29	=29	=29	=29
8r	8r	8r	2fff
8B	8d	8g	.
8B	8d	8g	.
8B	8d	8g	.
=30	=30	=30	=30
8r	8r	8r	2eee
8c	8e	8g	.
8c	8e	8g	.
8c	8e	8g	.
=31	=31	=31	=31
8r	8r	8r	2aaa
8F	8d	8cc	.
8F	8d	8cc	.
8F	8d	8cc	.
=32	=32	=32	=32
8F	8d	8cc	4a
8F	8d	8cc	.
8F	8d	8a	4dd
8F	8d	8a	.
=33	=33	=33	=33
[2G	8d	16f	2cc
.	.	16g	.
.	8c#	16e	.
.	.	16g	.
.	8d	16f	.
.	.	16g	.
.	8c#	16e	.
.	.	16g	.
=34	=34	=34	=34
8G]	[2d	[2f	8b
8A-	.	.	8cc
8G	.	.	8b
8A-	.	.	8cc
=35	=35	=35	=35
[2G	8d]	16f]	[2b
.	.	16g	.
.	8c#	16e	.
.	.	16g	.
.	8d	16f	.
.	.	16g	.
.	8c#	16e	.
.	.	16g	.
=36	=36	=36	=36
8G]	[2d	[2f	8b]
8A-	.	.	8cc
8G	.	.	8b
8A-	.	.	8cc
=37	=37	=37	=37
[2G	8d]	16f]	[2b
.	.	16g	.
.	8c#	16e	.
.	.	16g	.
.	8d	16f	.
.	.	16g	.
.	8c#	16e	.
.	.	16g	.
=38	=38	=38	=38
2G_	8d	8f	8b]
.	8e	8g	8cc
.	8d	8f	8dd
.	8c	8e	8ee
=39	=39	=39	=39
4G]	4B	4d	4ff
8r	4r	4r	4r
8GG	.	.	.
=40	=40	=40	=40
4C	16r	4.r	4r
.	16e	.	.
.	16d	.	.
.	16e	.	.
4CC	4c	.	16r
.	.	.	16ee
.	.	8G	16dd
.	.	.	16ee
=41	=41	=41	=41
4r	2e	[2c	16cc
.	.	.	16dd
.	.	.	16b
.	.	.	16cc
4C	.	.	16a
.	.	.	16b
.	.	.	16g
.	.	.	16a
=42	=42	=42	=42
4D	[2f	4c]	4f
4DD	.	4B	16r
.	.	.	16ff
.	.	.	16ee
.	.	.	16ff
=43	=43	=43	=43
4r	2f]	[2d	16dd
.	.	.	16ee
.	.	.	16cc
.	.	.	16dd
4D	.	.	16b
.	.	.	16cc
.	.	.	16a
.	.	.	16b
=44	=44	=44	=44
4E	[2g	4d]	4g
4EE	.	4c	16r
.	.	.	16gg
.	.	.	16ff
.	.	.	16gg
=45	=45	=45	=45
4r	2g]	[2e	16ee
.	.	.	16ff
.	.	.	16dd
.	.	.	16ee
4E	.	.	16cc
.	.	.	16dd
.	.	.	16b
.	.	.	16cc
=46	=46	=46	=46
4F	[2a	4e]	4a
4FF	.	4d	16r
.	.	.	16aa
.	.	.	16gg
.	.	.	16aa
=47	=47	=47	=47
4r	2a]	[2f	16ff
.	.	.	16gg
.	.	.	16ee
.	.	.	16ff
4F	.	.	16dd
.	.	.	16ee
.	.	.	16cc
.	.	.	16dd
=48	=48	=48	=48
4G	2d	4f]	4b
4GG	.	4B	16r
.	.	.	16dd
.	.	.	16cc
.	.	.	16dd
=49	=49	=49	=49
4r	2f	2d	16b
.	.	.	16cc
.	.	.	16a
.	.	.	16b
4G	.	.	16g
.	.	.	16a
.	.	.	16f
.	.	.	16g
=50	=50	=50	=50
4c	4e	4G	4e
16C	16r	4r	4g
16c	16e	.	.
16B	16d	.	.
16c	16e	.	.
=51	=51	=51	=51
16A	16c	2e	[2cc
16B	16d	.	.
16G	16B	.	.
16A	16c	.	.
16F	16A	.	.
16G	16B	.	.
16E	16G	.	.
16F	16A	.	.
=52	=52	=52	=52
4D	4F	2f	4cc]
16r	16r	.	4b
16d	16f	.	.
16c	16e	.	.
16d	16f	.	.
=53	=53	=53	=53
16B	16d	2f	[2dd
16c	16e	.	.
16A	16c	.	.
16B	16d	.	.
16G	16B	.	.
16A	16c	.	.
16F	16A	.	.
16G	16B	.	.
=54	=54	=54	=54
4E	4G	2g	4dd]
16r	16r	.	4cc
16e	16g	.	.
16d	16f	.	.
16e	16g	.	.
=55	=55	=55	=55
16c	16e	2g	[2ee
16d	16f	.	.
16B	16d	.	.
16c	16e	.	.
16A	16c	.	.
16B	16d	.	.
16G	16B	.	.
16A	16c	.	.
=56	=56	=56	=56
4F	4A	2a	4ee]
16r	16r	.	4dd
16f	16a	.	.
16e	16g	.	.
16f	16a	.	.
=57	=57	=57	=57
16d	16f	2a	[2ff
16e	16g	.	.
16c	16e	.	.
16d	16f	.	.
16B	16d	.	.
16c	16e	.	.
16A	16c	.	.
16B	16d	.	.
=58	=58	=58	=58
8G	8B	4dd	4ff]
16A	16c	.	.
16B	16d	.	.
8c	8e	4g	4ee
8C	8c	.	.
=59	=59	=59	=59
8F	4A	4cc	4cc 4aa
8FF	.	.	.
8F	4G	4dd	4bb 4dd
8FF	.	.	.
=60	=60	=60	=60
8E	4G	4ee	4ccc 4ee
8EE	.	.	.
4r	4r	4r	4r
=61	=61	=61	=61
2F#	2f#	2f#	2f#
=62	=62	=62	=62
8G	8g	8g	16g
.	.	.	16a
8F#	8f#	8f#	16f#
.	.	.	16a
8G	8g	8g	16g
.	.	.	16a
8F	8f	8f	16f
.	.	.	16g
=63	=63	=63	=63
8E	8e	8e	16e
.	.	.	16f
8D	8d	8d	16d
.	.	.	16e
8C	8c	8c	16c
.	.	.	16g
8F#	8f#	8f#	16f#
.	.	.	16a
=64	=64	=64	=64
8G	8g	8g	16g
.	.	.	16a
8F#	8f#	8f#	16f#
.	.	.	16a
8G	8g	8g	16g
.	.	.	16a
8F	8f	8f	16f
.	.	.	16g
=65	=65	=65	=65
8E	8e	8e	16e
.	.	.	16f
8D	8d	8d	16d
.	.	.	16e
8C	8c	8c	16c
.	.	.	16g
8F#	8f#	8f#	16f#
.	.	.	16a
=66	=66	=66	=66
8G	8g	8g	16g
.	.	.	16a
8F#	8f#	8f#	16f#
.	.	.	16a
8G	8g	8g	8g
8G#	8g#	8g#	16g#
.	.	.	16b
=67	=67	=67	=67
8A	8a	8a	16a
.	.	.	16b
8G#	8g#	8g#	16g#
.	.	.	16b
8A	8a	8a	8a
8B	8b	8b	16b
.	.	.	16dd
=68	=68	=68	=68
8c	8cc	8cc	16cc
.	.	.	16dd
8B	8b	8b	16b
.	.	.	16cc
8A	8a	8a	16a
.	.	.	16b
8G	8g	8g	16g
.	.	.	16a
=69	=69	=69	=69
4F	4f	4f	4f
4r	4r	4r	4aa
=70	=70	=70	=70
4F#	4f#	4f#	4f#
4r	4r	4r	4ccc
=71	=71	=71	=71
4G	8G	8G	2g
.	8e	8g	.
4r	8d	8f	.
.	8c	8e	.
=72	=72	=72	=72
4G	8r	8r	2dd
.	8d	8f	.
4r	8c	8e	.
.	8B	8d	.
=73	=73	=73	=73
8C	4c	16e	4.cc
.	.	16f	.
8C	.	16d	.
.	.	16e	.
8C	8e	16c	.
.	.	16g	.
8C	8g	16f	8g
.	.	16e	.
=74	=74	=74	=74
8C	2f	16f	4a
.	.	16g	.
8C	.	16e	.
.	.	16f	.
8C	.	16d	4b
.	.	16f	.
8C	.	16e	.
.	.	16d	.
=75	=75	=75	=75
8C	4e	16e	4.cc
.	.	16f	.
8C	.	16d	.
.	.	16e	.
8C	8E	16c	.
.	.	16g	.
8C	8G	16f	8G
.	.	16e	.
=76	=76	=76	=76
8C	2F	16f	4A
.	.	16g	.
8C	.	16e	.
.	.	16f	.
8C	.	16d	4B
.	.	16f	.
8C	.	16e	.
.	.	16d	.
=77	=77	=77	=77
16C	4E	16c	16c
16E	.	16e	16e
16D	.	16d	16d
16F	.	16f	16f
16E	16e	16e	16e
16G	16g	16g	16g
16F	16f	16f	16f
16A	16a	16a	16a
=78	=78	=78	=78
16G	16g	16g	16g
16A	16a	16a	16a
16B-	16b-	16b-	16b-
16c	16cc	16cc	16cc
16B-	16b-	16b-	16b-
16A	16a	16a	16a
16G	16g	16g	16g
16F	16f	16f	16f
=79	=79	=79	=79
4E	4e	4e	4e
4r	4r	4r	8r
.	.	.	8A
=80	=80	=80	=80
8AA	2e	2c#	2g
8AA	.	.	.
8AA	.	.	.
8AA	.	.	.
=81	=81	=81	=81
8AA	2f	2d	4f
8AA	.	.	.
8AA	.	.	8r
8AA	.	.	8A
=82	=82	=82	=82
8AA	2d	2B	2g#
8AA	.	.	.
8AA	.	.	.
8AA	.	.	.
=83	=83	=83	=83
8AA	4e	4c#	4a
8A	.	.	.
8AA	4r	4r	16r
.	.	.	16aa
8r	.	.	16gg
.	.	.	16aa
=84	=84	=84	=84
8D	2r	16r	16ff
.	.	16a	16gg
8E	.	16g	16ee
.	.	16a	16ff
8F	.	16f	16dd
.	.	16g	16ee
8r	.	16e	16cc
.	.	16f	16dd
=85	=85	=85	=85
2r	8G	16d	16b-
.	.	16e	16cc
.	8A	16c	16a
.	.	16d	16b-
.	8B-	16B-	16g
.	.	16b-	16gg
.	8r	16a	16ff
.	.	16b-	16gg
=86	=86	=86	=86
8C	2r	16g	16ee
.	.	16a	16ff
8D	.	16f	16dd
.	.	16g	16ee
8E	.	16e	16cc
.	.	16f	16dd
8r	.	16d	16b-
.	.	16e	16cc
=87	=87	=87	=87
2r	8F	16c	16a
.	.	16d	16b-
.	8G	16B-	16g
.	.	16c	16a
.	8A	16A	16f
.	.	16a	16ff
.	8r	16g	16ee
.	.	16a	16ff
=88	=88	=88	=88
8BB-	2r	16f	16dd
.	.	16g	16ee
8C	.	16e	16cc
.	.	16f	16dd
8D	.	16d	16b-
.	.	16e	16cc
8r	.	16c	16a
.	.	16d	16b-
=89	=89	=89	=89
2r	8E	16B-	16g
.	.	16c	16a
.	8F	16A	16f
.	.	16B-	16g
.	8G	16G	16e
.	.	16g	16ee
.	8r	16f	16dd
.	.	16g	16ee
=90	=90	=90	=90
8AA	2r	16e	16cc#
.	.	16f	16dd
8BB	.	16d	16b
.	.	16e	16cc#
8C#	.	8c#	16a
.	.	.	16gg
8r	.	8A	16ff
.	.	.	16ee
=91	=91	=91	=91
2r	4.r	16d	8ff
.	.	16f	.
.	.	16e	8cc#
.	.	16g	.
.	.	8f	8dd
.	16D	8r	8cc
.	16F#	.	.
=92	=92	=92	=92
2r	16G	4.r	8b-
.	16B-	.	.
.	16A	.	8f#
.	16c	.	.
.	8B-	.	8g
.	8r	16G	8ff
.	.	16B	.
=93	=93	=93	=93
2r	4.r	16c	8ee
.	.	16e	.
.	.	16d	8b
.	.	16f	.
.	.	8e	8cc
.	16C	8r	8b-
.	16E	.	.
=94	=94	=94	=94
4.r	16F	4.r	8a
.	16A	.	.
.	16G	.	8e
.	16B-	.	.
.	8A	.	8f
16F	8r	8cc	8ee-
16A	.	.	.
=95	=95	=95	=95
16B-	2r	8b-	8dd
16d	.	.	.
16c	.	8f	8a
16e-	.	.	.
8d	.	8f	16b-
.	.	.	16cc
8c	.	8f	16a
.	.	.	16b-
=96	=96	=96	=96
4.B-	2d	2f	16g
.	.	.	16b-
.	.	.	16dd
.	.	.	16cc
.	.	.	16b-
.	.	.	16a
8B	.	.	16g
.	.	.	16f
=97	=97	=97	=97
4c	4c	16e	4e
.	.	16f	.
.	.	16g	.
.	.	16f	.
4r	8r	16e	8r
.	.	16d	.
.	8E	16c	8c
.	.	16B-	.
=98	=98	=98	=98
2r	4F	4A	2f 2A
.	4r	4r	.
=99	=99	=99	=99
8r	8r	8r	4e 4G
8C	8B-	8G 8e	.
8C	8B-	8e 8G	8r
8r	8r	8r	8c
=100	=100	=100	=100
2r	2r	2r	2g 2B-
=101	=101	=101	=101
8r	8r	8r	8A 8f
8F	8A	8f 8A	4r
8F	8A	8f 8A	.
8r	8r	[8a	[8cc
=102	=102	=102	=102
2r	4F	8a]	8cc]
.	.	4f	4a
.	4f	.	.
.	.	[8dd	[8ff
=103	=103	=103	=103
4BB-	4B-	8dd]	8ff]
.	.	4b-	4dd
4B-	4r	.	.
.	.	8b-	16d
.	.	.	16dd
=104	=104	=104	=104
4c	4r	8a	8cc
.	.	16g	16b-
.	.	16f	16a
4C	4c	8e	8g
.	.	16f	16a
.	.	16g	16b-
=105	=105	=105	=105
4F	4c	4g	4b-
4FF	4r	8f	8a
.	.	[8a	[8cc
=106	=106	=106	=106
4F	4A	8a]	8cc]
.	.	4f	4a
4F	4F	.	.
.	.	[8dd	[8ff
=107	=107	=107	=107
4B-	4d	8dd]	8ff]
.	.	4b-	4dd
4G	4B-	.	.
.	.	[8b-	[8gg
=108	=108	=108	=108
4c	4e	8b-]	8gg]
.	.	4g	4ee
4A	4c	.	.
.	.	[8cc	[8aa
=109	=109	=109	=109
4d	4f	8cc]	8aa]
.	.	4a	4ff
4B-	4d	.	.
.	.	8dd	[8bb-
=110	=110	=110	=110
4E	2c	8gg	8bb-]
.	.	4gg	4bb-
4F	.	.	.
.	.	[8ff	[8aa
=111	=111	=111	=111
4BB-	2d	8ff]	8aa]
.	.	4ff	4gg
4BB	.	.	.
.	.	8ff	[8gg
=112	=112	=112	=112
4C	[2c	8ee	16gg]
.	.	.	16cc
.	.	8aa	16ccc
.	.	.	16cc
4r	.	8gg	16bb-
.	.	.	16cc
.	.	8ff	16aa
.	.	.	16cc
=113	=113	=113	=113
2r	2c_	8ee	16gg
.	.	.	16cc
.	.	8ff	16aa
.	.	.	16cc
.	.	8ee	16gg
.	.	.	16cc
.	.	8dd	16ff
.	.	.	16cc
=114	=114	=114	=114
4C	2c_	8cc	16ee
.	.	.	16cc
.	.	8aa	16ccc
.	.	.	16cc
4r	.	8gg	16bb-
.	.	.	16cc
.	.	8ff	16aa
.	.	.	16cc
=115	=115	=115	=115
2r	2c_	8ee	16gg
.	.	.	16cc
.	.	8ff	16aa
.	.	.	16cc
.	.	8ee	16gg
.	.	.	16cc
.	.	8dd	16ff
.	.	.	16cc
=116	=116	=116	=116
4C	2c_	8cc	16ee
.	.	.	16cc
.	.	8dd	16ff
.	.	.	16cc
4r	.	8ee	16gg
.	.	.	16cc
.	.	8ff	16aa
.	.	.	16cc
=117	=117	=117	=117
2r	4c]	4gg	4bb-
.	4r	4r	8r
.	.	.	8cc
=118	=118	=118	=118
8r	8r	8r	2ff
8A	8c	8cc	.
8A	8c	8cc	.
8A	8c	8cc	.
=119	=119	=119	=119
8r	8r	8r	2ee
8G	8c	8b-	.
8G	8c	8b-	.
8G	8c	8b-	.
=120	=120	=120	=120
8r	8r	8r	2bb-
8E	8g	8cc	.
8E	8g	8cc	.
8E	8g	8cc	.
=121	=121	=121	=121
8r	8r	8r	2aa
8F	8a	8cc	.
8F	8a	8cc	.
8F	8a	8cc	.
=122	=122	=122	=122
8r	8r	8r	2ddd
8B-	8g	8ff	.
8B-	8g	8ff	.
8B-	8g	8ff	.
=123	=123	=123	=123
8B-	8g	8ff	4dd
8B-	8g	8ff	.
8B-	8g	8dd	4gg
8B-	8g	8dd	.
=124	=124	=124	=124
[2c	8g	16b-	2ff
.	.	16cc	.
.	8f#	16a	.
.	.	16cc	.
.	8g	16b-	.
.	.	16cc	.
.	8f#	16a	.
.	.	16cc	.
=125	=125	=125	=125
8c]	[2g	[2b-	8ee
8d-	.	.	8ff
8c	.	.	8ee
8d-	.	.	8ff
=126	=126	=126	=126
[2c	8g]	16b-]	[2ee
.	.	16cc	.
.	8f#	16a	.
.	.	16cc	.
.	8g	16b-	.
.	.	16cc	.
.	8f#	16a	.
.	.	16cc	.
=127	=127	=127	=127
8c]	[2g	[2b-	8ee]
8d-	.	.	8ff
8c	.	.	8ee
8d-	.	.	8ff
=128	=128	=128	=128
[2c	8g]	16b-]	[2ee
.	.	16cc	.
.	8f#	16a	.
.	.	16cc	.
.	8g	16b-	.
.	.	16cc	.
.	8f#	16a	.
.	.	16cc	.
=129	=129	=129	=129
2c_	8g	8b-	8ee]
.	8a	8cc	8ff
.	8g	8b-	8gg
.	8f	8a	8aa
=130	=130	=130	=130
4c]	4e	4g	4bb-
8r	4r	4r	4r
8C	.	.	.
=131	=131	=131	=131
4F	16r	4.r	4r
.	16a	.	.
.	16g	.	.
.	16a	.	.
4FF	4f	.	16r
.	.	.	16aa
.	.	8c	16gg
.	.	.	16aa
=132	=132	=132	=132
4r	2a	[2f	16ff
.	.	.	16gg
.	.	.	16ee
.	.	.	16ff
4F	.	.	16dd
.	.	.	16ee
.	.	.	16cc
.	.	.	16dd
=133	=133	=133	=133
4G	[2b-	4f]	4b-
4GG	.	4e	16r
.	.	.	16bb-
.	.	.	16aa
.	.	.	16bb-
=134	=134	=134	=134
4r	2b-]	[2g	16gg
.	.	.	16aa
.	.	.	16ff
.	.	.	16gg
4G	.	.	16ee
.	.	.	16ff
.	.	.	16dd
.	.	.	16ee
=135	=135	=135	=135
4A	[2cc	4g]	4cc
4AA	.	4f	16r
.	.	.	16ccc
.	.	.	16bb-
.	.	.	16ccc
=136	=136	=136	=136
4r	2cc]	[2a	16aa
.	.	.	16bb-
.	.	.	16gg
.	.	.	16aa
4A	.	.	16ff
.	.	.	16gg
.	.	.	16ee
.	.	.	16ff
=137	=137	=137	=137
4B-	[2dd	4a]	4dd
4BB-	.	4g	16r
.	.	.	16ddd
.	.	.	16ccc
.	.	.	16ddd
=138	=138	=138	=138
4r	2dd]	[2b-	16bb-
.	.	.	16ccc
.	.	.	16aa
.	.	.	16bb-
4B-	.	.	16gg
.	.	.	16aa
.	.	.	16ff
.	.	.	16gg
=139	=139	=139	=139
4c	2g	4b-]	4ee
4C	.	4e	16r
.	.	.	16gg
.	.	.	16ff
.	.	.	16gg
=140	=140	=140	=140
4r	2b-	2g	16ee
.	.	.	16ff
.	.	.	16dd
.	.	.	16ee
4C	.	.	16cc
.	.	.	16dd
.	.	.	16b-
.	.	.	16cc
=141	=141	=141	=141
4F	4a	4c	4a
16FF	4r	16r	4cc
16F	.	16a	.
16E	.	16g	.
16F	.	16a	.
=142	=142	=142	=142
16D	2A	16f	[2ff
16E	.	16g	.
16C	.	16e	.
16D	.	16f	.
16BB-	.	16d	.
16C	.	16e	.
16AA	.	16c	.
16BB-	.	16d	.
=143	=143	=143	=143
4GG	16B-	4B-	4ff]
.	16c	.	.
.	16A	.	.
.	16B-	.	.
16r	8G	16r	4ee
16G	.	16b-	.
16F	8A	16a	.
16G	.	16b-	.
=144	=144	=144	=144
16E	2B-	16g	[2gg
16F	.	16a	.
16D	.	16f	.
16E	.	16g	.
16C	.	16e	.
16D	.	16f	.
16BB-	.	16d	.
16C	.	16e	.
=145	=145	=145	=145
4AA	16c	4c	4gg]
.	16d	.	.
.	16B-	.	.
.	16c	.	.
16r	8A	16r	4ff
16A	.	16cc	.
16G	8B-	16b-	.
16A	.	16cc	.
=146	=146	=146	=146
16F	2c	16a	[2aa
16G	.	16b-	.
16E	.	16g	.
16F	.	16a	.
16D	.	16f	.
16E	.	16g	.
16C	.	16e	.
16D	.	16f	.
=147	=147	=147	=147
4BB-	16d	4d	4aa]
.	16e	.	.
.	16c	.	.
.	16d	.	.
16r	8B-	16r	4gg
16B-	.	16dd	.
16A	8c	16cc	.
16B-	.	16dd	.
=148	=148	=148	=148
16G	2d	16b-	[2bb-
16A	.	16cc	.
16F	.	16a	.
16G	.	16b-	.
16E	.	16g	.
16F	.	16a	.
16D	.	16f	.
16E	.	16g	.
=149	=149	=149	=149
8C	4g	8e	4bb-]
16D	.	16f	.
16E	.	16g	.
8F	4c	[4f	4aa
16G	.	.	.
16A	.	.	.
=150	=150	=150	=150
8B-	4d	4f]	2gg
8G	.	.	.
8c	4B-	4e	.
8C	.	.	.
=151	=151	=151	=151
4D	4A	4f	4ff
4r	4r	4r	4r
=152	=152	=152	=152
2B	2B	2b	2b
=153	=153	=153	=153
8c	8c	8cc	16cc
.	.	.	16dd
8B	8B	8b	16b
.	.	.	16dd
8c	8c	8cc	16cc
.	.	.	16dd
8B-	8B-	8b-	16b-
.	.	.	16cc
=154	=154	=154	=154
8A	8A	8a	16a
.	.	.	16b-
8G	8G	8g	16g
.	.	.	16a
8F	8F	8f	16f
.	.	.	16cc
8B	8B	8b	16b
.	.	.	16dd
=155	=155	=155	=155
8c	8c	8cc	16cc
.	.	.	16dd
8B	8B	8b	16b
.	.	.	16dd
8c	8c	8cc	16cc
.	.	.	16dd
8B-	8B-	8b-	16b-
.	.	.	16cc
=156	=156	=156	=156
8A	8A	8a	16a
.	.	.	16b-
8G	8G	8g	16g
.	.	.	16a
8F	8F	8f	16f
.	.	.	16cc
8B	8B	8b	16b
.	.	.	16dd
=157	=157	=157	=157
8c	8c	8cc	16cc
.	.	.	16dd
8B	8B	8b	16b
.	.	.	16dd
8c	8c	8cc	8cc
8c#	8c#	8cc#	16cc#
.	.	.	16ee
=158	=158	=158	=158
8d	8d	8dd	16dd
.	.	.	16ee
8c#	8c#	8cc#	16cc#
.	.	.	16ee
8d	8d	8dd	8dd
8e	8e	8ee	16ee
.	.	.	16gg
=159	=159	=159	=159
8f	8f	8ff	16ff
.	.	.	16gg
8e	8e	8ee	16ee
.	.	.	16ff
8d	8d	8dd	16dd
.	.	.	16ee
8c	8c	8cc	16cc
.	.	.	16dd
=160	=160	=160	=160
4B-	4B-	4b-	4b-
4r	4r	4r	4ddd
=161	=161	=161	=161
4B	4B	4b	4b
4r	4r	4r	4fff
=162	=162	=162	=162
4c	8c	8c	2c
.	8a	8cc	.
4r	8g	8b-	.
.	8f	8a	.
=163	=163	=163	=163
4C	8r	8r	2gg
.	8g	8b-	.
4r	8f	8a	.
.	8e	8g	.
=164	=164	=164	=164
8F	4f	16a	4.ff
.	.	16b-	.
8F	.	16g	.
.	.	16a	.
8F	8a	16f	.
.	.	16cc	.
8F	8cc	16b-	8cc
.	.	16a	.
=165	=165	=165	=165
8F	2b-	16b-	4dd
.	.	16cc	.
8F	.	16a	.
.	.	16b-	.
8F	.	16g	4ee
.	.	16b-	.
8F	.	16a	.
.	.	16g	.
=166	=166	=166	=166
8F	4a	16a	4.ff
.	.	16b-	.
8F	.	16g	.
.	.	16a	.
8F	8A	16f	.
.	.	16cc	.
8F	8c	16b-	8c
.	.	16a	.
=167	=167	=167	=167
8F	2B-	16b-	4d
.	.	16cc	.
8F	.	16a	.
.	.	16b-	.
8F	.	16g	4e
.	.	16b-	.
8F	.	16a	.
.	.	16g	.
=168	=168	=168	=168
16F	4A	16f	16f
16A	.	16a	16a
16G	.	16g	16g
16B-	.	16b-	16b-
16A	16A	16a	16a
16c	16c	16cc	16cc
16B-	16B-	16b-	16b-
16d	16d	16dd	16dd
=169	=169	=169	=169
16c	16c	16cc	16cc
16d	16d	16dd	16dd
16e-	16e-	16ee-	16ee-
16f	16f	16ff	16ff
16e-	16e-	16ee-	16ee-
16d	16d	16dd	16dd
16c	16c	16cc	16cc
16B-	16B-	16b-	16b-
=170	=170	=170	=170
4A	4A	4a	4a
4r	4r	4r	4r
=171	=171	=171	=171
4F	4A	4f	4f
4FF	4a 4f 4c	4a 4f	4ff 4a
=172	=172	=172	=172
4FF	4a 4f 4c	4f 4a	4ff 4a
4r	4r	4r	4r
==	==	==	==
*-	*-	*-	*-
!!!RWG1: This file contains only pitch and duration data.
!!!RWG2: Transposing instruments are not transposed.
!!!RWG3: Spines may have incompatible meters.
!!!RWG4: Durations of rests and tied notes may be interpreted.
!!!RWG: Key is interpreted using the Humdrum key tool.
!!!GTL: 6 Divertimentos
!!!AFT: stage1
!!!END: 1997/04/15
!!!KEY: 23521065
!!!EMD: Converted from MuseData to Humdrum Dec 16, 2000, by Andreas Kornstaedt using muse2kern.
!!!EMD: Manual editing by Craig Sapp, Nov 2001
